testflight.svg

<?xml version="1.0" encoding="UTF-8"?>
<svg width="48px" height="48px" viewBox="0 0 48 48" version="1.1" xmlns="http://www.w3.org/2000/svg" xmlns:xlink="http://www.w3.org/1999/xlink">
    <title>Untitled 2</title>
    <g id="Page-1" stroke="none" stroke-width="1" fill="none" fill-rule="evenodd">
        <g id="works-with-testflight" fill="#0176DF" fill-rule="nonzero">
            <path d="M36.8114286,0 C39.7942857,0 42.6057143,1.1654368 44.72,3.27921923 C46.8342857,5.39300167 48,8.20376101 48,11.197334 L48,36.802666 C48,39.796239 46.8342857,42.6069983 44.72,44.7207808 C42.6057143,46.8345632 39.8057143,48 36.8114286,48 L11.1885714,48 C8.20571429,48 5.39428571,46.8345632 3.28,44.7207808 C1.16571429,42.6069983 1.33226763e-15,39.8076648 1.33226763e-15,36.8140919 L1.33226763e-15,11.197334 C1.33226763e-15,8.20376101 1.16571429,5.39300167 3.28,3.27921923 C5.39428571,1.1654368 8.19428571,0 11.1885714,0 L36.8114286,0 Z M36.2365571,2.7253035 L11.7634433,2.7253035 C6.7749451,2.7253035 2.71428571,6.78490191 2.71428571,11.7720968 L2.71428571,36.2279032 C2.71428571,41.2150981 6.7749451,45.2746965 11.7634433,45.2746965 L36.2365571,45.2746965 C41.2250553,45.2746965 45.2857147,41.2150981 45.2857147,36.2279032 L45.2857147,11.7720968 C45.2857147,6.78490191 41.2250553,2.7253035 36.2365571,2.7253035 Z M36.9828571,36.4713164 C37.36,36.65413 37.5314286,37.0997382 37.36,37.4539395 C37.3257143,37.5339205 37.2685714,37.6139015 37.2,37.6824566 C37.1542857,37.72816 37.1085714,37.7738634 37.0742857,37.8081409 C33.6571429,41.0302309 29.0628571,43.0069031 24,43.0069031 C18.9828571,43.0069031 14.4228571,41.0759343 11.0171429,37.8995477 C10.9714286,37.8614616 10.9257143,37.8182972 10.8766138,37.7700547 L10.8,37.6938824 L10.7259314,37.6071373 C10.5283429,37.3344251 10.552,36.9580576 10.7885714,36.7112592 C10.8571429,36.6427041 10.9371429,36.5855749 11.0285714,36.5512973 C11.6,36.3342061 12.24,36.4598905 12.6971429,36.8597953 C12.7771429,36.9283504 12.8457143,36.9854796 12.9028571,37.0426089 C15.8971429,39.5905737 19.7714286,41.1216377 24,41.1216377 C28.3885714,41.1216377 32.4,39.4648893 35.4285714,36.7569626 L35.4571429,36.7383956 L35.4857143,36.7112592 L35.5994075,36.6155345 C35.9930106,36.3202307 36.5257143,36.2635736 36.9828571,36.4713164 L36.9828571,36.4713164 Z M21.76,24.5770055 C22.3026087,25.4220217 21.3684688,26.3908647 21.2019068,26.5529696 L21.1771429,26.5765294 L21.1413909,26.6119546 C20.9778828,26.7739072 20.2771065,27.4673598 19.5292072,28.1976393 L19.2072229,28.5114287 C18.5632,29.1377482 17.936,29.739205 17.6342857,30.0042847 C16.8662857,30.6733825 14.7817143,31.6899725 14.6161774,31.7904468 L14.6057143,31.7981433 L7.85142857,34.9745299 C7.32571429,35.271602 6.43428571,35.0316591 6.10285714,34.4489407 C5.77142857,33.8662223 6.02285714,33.2835039 6.45714286,32.8493216 L6.51054825,32.7968662 C6.7191956,32.5920361 7.50901697,31.8176369 8.34279608,31.0127244 L8.68721215,30.6809592 C9.49016398,29.9093211 10.2656277,29.1778148 10.5371429,28.9645323 C10.9529954,28.6372369 11.7318983,28.1935192 12.5304674,27.7725557 L12.929801,27.5646145 C13.0484411,27.5035468 13.1662457,27.443501 13.2820764,27.3849385 L13.7861461,27.1329775 C14.5375707,26.7614596 15.1085714,26.4965484 15.1085714,26.4965484 C15.1085714,26.4965484 16.1325714,26.0025454 17.2027327,25.496409 L17.6042971,25.3069802 C18.4041143,24.9307498 19.1611429,24.5815758 19.4628571,24.462747 C20.2057143,24.1656748 21.1657143,23.6515115 21.76,24.5770055 L21.76,24.5770055 Z M27.36,25.0226137 C27.7942857,25.0226137 28.1714286,25.1368722 28.1714286,25.1368722 C28.1714286,25.1368722 29.2506921,25.432624 30.4019065,25.7571926 L30.8350171,25.8797353 C31.7001143,26.1254368 32.5348571,26.3685789 32.9142857,26.4965484 C33.8797714,26.8256129 35.8037211,28.1129133 35.9560923,28.2153708 L35.9657143,28.2218519 L42.0914286,32.4836944 C42.6057143,32.7921923 42.8457143,33.6834087 42.5142857,34.2432754 C42.2742857,34.654606 41.8857143,34.814568 41.4742857,34.814568 C41.3028571,34.814568 41.12,34.7802904 40.9485714,34.734587 C40.9485714,34.734587 39.7141703,34.3949801 38.4140557,34.0234891 L37.9543662,33.8915517 C36.8842713,33.5829473 35.8628571,33.2772716 35.5428571,33.1463937 C35.0517972,32.9517857 34.2781745,32.5003635 33.5143296,32.0201119 L33.1345754,31.7786391 C32.0685833,31.0936403 31.12,30.4270412 31.12,30.4270412 C31.12,30.4270412 27.8171429,28.1761485 27.1885714,27.6734111 C26.5714286,27.1820995 25.6457143,26.5993811 26.1485714,25.6281838 C26.4114286,25.148298 26.9142857,25.0226137 27.36,25.0226137 L27.36,25.0226137 Z M19.3942857,6.30706975 C19.4285714,6.4099024 19.4285714,6.52416091 19.4171429,6.63841942 C19.3371429,7.17543442 18.96,7.63246846 18.4457143,7.80385622 C18.4,7.81528208 18.3542857,7.83813378 18.3085714,7.84955963 C11.6457143,10.1918591 6.86857143,16.5446322 6.86857143,24.0057129 C6.86857143,24.999762 6.96,25.9709593 7.12,26.9193049 C7.12761905,26.9650083 7.1352381,27.0157899 7.14624339,27.0716496 L7.16571429,27.1592478 L7.18466286,27.2999229 C7.21634286,27.7217424 7.024,28.1361581 6.67428571,28.3932397 C6.29714286,28.6674601 5.77142857,28.5760533 5.49714286,28.1875744 C5.45142857,28.1266365 5.41587302,28.0606205 5.39047619,27.9895263 L5.36,27.8790764 L5.34857143,27.8219472 L5.33714286,27.7648179 C5.08571429,26.5536777 4.96,25.2854082 4.96,23.9942871 C4.96,15.4248988 10.6285714,8.18090931 18.4228571,5.81575815 L18.4342857,5.80576053 L18.4457143,5.8043323 L18.5460053,5.78018461 C18.914127,5.7179243 19.2790476,5.94049036 19.3942857,6.30706975 L19.3942857,6.30706975 Z M29.36,5.7357772 C29.6457143,5.81575815 29.8857143,5.88431326 30.0685714,5.95286836 C37.6114286,8.48940728 43.04,15.6077124 43.04,24.0057129 C43.04,25.228279 42.9257143,26.4165675 42.7085714,27.5705784 C42.6933333,27.6467508 42.6780952,27.7330794 42.6594709,27.826179 L42.6285714,27.9704832 L42.5998755,28.069513 C42.4819835,28.3865353 42.1485714,28.5687823 41.8057143,28.4960724 C41.7142857,28.4732207 41.6342857,28.4389431 41.5542857,28.3818139 C41.0628571,28.0390383 40.8114286,27.4220424 40.9142857,26.8278981 C40.9257143,26.7707689 40.9257143,26.7136396 40.9371429,26.6679362 C41.0742857,25.7995715 41.1428571,24.9083552 41.1428571,24.0057129 C41.1428571,16.7845751 36.6742857,10.6031897 30.3428571,8.0895025 C30.2228571,8.03808617 30.0835714,7.98666984 29.925,7.93043323 L29.76,7.87241133 L29.6180662,7.81673306 C29.0631276,7.57209399 28.6654945,7.06908612 28.56,6.47845751 C28.4914286,6.12425613 28.72,5.79290645 29.0742857,5.72435134 C29.1657143,5.70149964 29.2685714,5.71292549 29.36,5.7357772 Z M23.7142857,3.82766008 C24.3885714,3.82766008 24.7771429,4.34182338 24.9257143,4.93596763 C24.9257143,4.93596763 25.2472045,6.17613936 25.5745768,7.48807326 L25.6898503,7.95218594 C25.9569933,9.03318966 26.2029437,10.0696371 26.2514286,10.4089502 C26.3203687,10.8873617 26.3216768,11.6793955 26.2946696,12.5022439 L26.2773666,12.9524265 C26.218451,14.3019434 26.1028571,15.5962866 26.1028571,15.5962866 C26.1028571,15.5962866 25.8057143,19.5839086 25.68,20.3837182 C25.5602721,21.1345598 25.5234726,22.1652182 24.5724862,22.3011539 L24.4228571,22.314687 L24.3771429,22.314687 C23.3810526,22.314687 23.0311674,20.961056 22.9970966,20.8185685 L22.9910375,20.7940374 C22.9577368,20.6664941 22.6737298,19.5778324 22.3866142,18.4483885 L22.2721891,17.9966174 C22.0642577,17.1723818 21.8724082,16.3922059 21.7942857,16.0190431 C21.5858286,15.0099119 21.7460114,12.7055829 21.7591596,12.5228511 L21.76,12.5113068 L22.3885714,5.07307784 C22.3885714,4.46750774 23.0514286,3.82766008 23.7142857,3.82766008 L23.7142857,3.82766008 Z" id="Shape"></path>
        </g>
    </g>
</svg>

<svg width="48" height="48" xmlns="http://www.w3.org/2000/svg"><path d="M36.811 0a11.12 11.12 0 0 1 7.909 3.28A11.121 11.121 0 0 1 48 11.196v25.606c0 2.993-1.166 5.804-3.28 7.918A11.1 11.1 0 0 1 36.811 48H11.19a11.12 11.12 0 0 1-7.909-3.28A11.095 11.095 0 0 1 0 36.815V11.197C0 8.204 1.166 5.393 3.28 3.28A11.1 11.1 0 0 1 11.189 0H36.81Zm-.574 2.725H11.763c-4.988 0-9.049 4.06-9.049 9.047v24.456c0 4.987 4.06 9.047 9.05 9.047h24.473c4.988 0 9.049-4.06 9.049-9.047V11.772c0-4.987-4.06-9.047-9.05-9.047Zm.746 33.746c.377.183.548.629.377.983a.755.755 0 0 1-.16.228l-.126.126A18.989 18.989 0 0 1 24 43.007 18.957 18.957 0 0 1 11.017 37.9a2.35 2.35 0 0 1-.14-.13l-.077-.076-.074-.087a.7.7 0 0 1 .303-1.056 1.647 1.647 0 0 1 1.668.309c.08.068.149.125.206.183A17.062 17.062 0 0 0 24 41.122c4.389 0 8.4-1.657 11.429-4.365l.028-.019.029-.027.113-.095a1.367 1.367 0 0 1 1.384-.145ZM21.76 24.577c.543.845-.392 1.814-.558 1.976l-.025.024-.036.035c-.163.162-.864.855-1.612 1.586l-.322.313a57.69 57.69 0 0 1-1.573 1.493c-.768.67-2.852 1.686-3.018 1.786l-.01.008-6.755 3.177c-.525.297-1.417.057-1.748-.526-.332-.583-.08-1.165.354-1.6l.054-.052c.208-.205.998-.98 1.832-1.784l.344-.332c.803-.772 1.579-1.503 1.85-1.716.416-.328 1.195-.771 1.993-1.192l.4-.208.352-.18.504-.252c.752-.372 1.323-.636 1.323-.636s1.024-.494 2.094-1l.401-.19c.8-.376 1.557-.725 1.859-.844.743-.297 1.703-.811 2.297.114Zm5.6.446c.434 0 .811.114.811.114s1.08.296 2.23.62l.434.123c.865.245 1.7.489 2.08.617.965.329 2.889 1.616 3.041 1.718l.01.007 6.125 4.262c.515.308.755 1.2.423 1.76-.24.41-.628.57-1.04.57-.171 0-.354-.034-.525-.08 0 0-1.235-.339-2.535-.71l-.46-.132c-1.07-.31-2.091-.615-2.411-.746-.491-.194-1.265-.646-2.029-1.126l-.38-.241c-1.065-.685-2.014-1.352-2.014-1.352s-3.303-2.25-3.931-2.754c-.618-.49-1.543-1.074-1.04-2.045.262-.48.765-.605 1.211-.605ZM19.394 6.307a.801.801 0 0 1 .023.331c-.08.537-.457.994-.971 1.166-.046.011-.092.034-.137.046-6.663 2.342-11.44 8.695-11.44 16.156 0 .994.091 1.965.251 2.913.008.046.015.097.026.153l.02.087.019.14c.031.423-.161.837-.51 1.094a.836.836 0 0 1-1.178-.205.747.747 0 0 1-.107-.198l-.03-.11-.011-.058-.012-.057a18.588 18.588 0 0 1-.377-3.77c0-8.57 5.669-15.814 13.463-18.18l.011-.01h.012l.1-.025a.761.761 0 0 1 .848.527Zm9.966-.571c.286.08.526.148.709.217C37.61 8.489 43.04 15.608 43.04 24.006c0 1.222-.114 2.41-.331 3.565-.016.076-.03.162-.05.255l-.03.144-.03.1a.687.687 0 0 1-1.045.312 1.58 1.58 0 0 1-.64-1.554c.012-.057.012-.114.023-.16.137-.868.206-1.76.206-2.662 0-7.221-4.469-13.403-10.8-15.916a7.202 7.202 0 0 0-.418-.16l-.165-.058-.142-.055a1.817 1.817 0 0 1-1.058-1.339.64.64 0 0 1 .8-.742Zm-5.646-1.908c.675 0 1.063.514 1.212 1.108 0 0 .321 1.24.649 2.552l.115.464c.267 1.081.513 2.118.561 2.457.07.478.07 1.27.044 2.093l-.018.45a66.405 66.405 0 0 1-.174 2.644s-.297 3.988-.423 4.788c-.12.75-.157 1.781-1.108 1.917l-.15.014h-.045c-.996 0-1.346-1.354-1.38-1.496l-.006-.025c-.033-.128-.317-1.216-.604-2.346l-.115-.451a66.2 66.2 0 0 1-.478-1.978c-.208-1.01-.048-3.313-.035-3.496l.001-.012.629-7.438c0-.605.662-1.245 1.325-1.245Z" fill="#0176DF" fill-rule="nonzero"/></svg>
